storage/app/icons/phosphoricons/bold/virus-bold.svg

<svg xmlns="http://www.w3.org/2000/svg" fill="currentColor" viewBox="0 0 256 256"><path d="M108 128a20 20 0 1 1 20-20 20 20 0 0 1-20 20m60-20a20 20 0 1 0 20 20 20 20 0 0 0-20-20m-40 40a20 20 0 1 0 20 20 20 20 0 0 0-20-20m124-20a12 12 0 0 1-12 12h-12.72a99.6 99.6 0 0 1-20.62 49.69l9.83 9.82a12 12 0 0 1-17 17l-9.82-9.83a99.6 99.6 0 0 1-49.67 20.6V240a12 12 0 0 1-24 0v-12.72a99.6 99.6 0 0 1-49.69-20.62l-9.82 9.83a12 12 0 0 1-17-17l9.83-9.82A99.6 99.6 0 0 1 28.72 140H16a12 12 0 0 1 0-24h12.72a99.6 99.6 0 0 1 20.62-49.69l-9.83-9.82a12 12 0 0 1 17-17l9.82 9.83A99.6 99.6 0 0 1 116 28.72V16a12 12 0 0 1 24 0v12.72a99.6 99.6 0 0 1 49.69 20.62l9.82-9.83a12 12 0 0 1 17 17l-9.83 9.82a99.6 99.6 0 0 1 20.6 49.67H240a12 12 0 0 1 12 12m-48 0a76 76 0 1 0-76 76 76.08 76.08 0 0 0 76-76"/></svg>

<svg xmlns="http://www.w3.org/2000/svg" viewBox="0 0 256 256" fill="currentColor"><path d="M108,128a20,20,0,1,1,20-20A20,20,0,0,1,108,128Zm60-20a20,20,0,1,0,20,20A20,20,0,0,0,168,108Zm-40,40a20,20,0,1,0,20,20A20,20,0,0,0,128,148Zm124-20a12,12,0,0,1-12,12H227.28a99.62,99.62,0,0,1-20.62,49.69l9.83,9.82a12,12,0,0,1-17,17l-9.82-9.83A99.62,99.62,0,0,1,140,227.28V240a12,12,0,0,1-24,0V227.28a99.62,99.62,0,0,1-49.69-20.62l-9.82,9.83a12,12,0,0,1-17-17l9.83-9.82A99.62,99.62,0,0,1,28.72,140H16a12,12,0,0,1,0-24H28.72A99.62,99.62,0,0,1,49.34,66.31l-9.83-9.82a12,12,0,0,1,17-17l9.82,9.83A99.62,99.62,0,0,1,116,28.72V16a12,12,0,0,1,24,0V28.72a99.62,99.62,0,0,1,49.69,20.62l9.82-9.83a12,12,0,0,1,17,17l-9.83,9.82A99.62,99.62,0,0,1,227.28,116H240A12,12,0,0,1,252,128Zm-48,0a76,76,0,1,0-76,76A76.08,76.08,0,0,0,204,128Z"/></svg>
